brandFactory_export/3.Masa/Intercambio_3Masa.svg

<?xml version="1.0" encoding="UTF-8"?>
<svg width="24px" height="24px" viewBox="0 0 24 24" version="1.1" xmlns="http://www.w3.org/2000/svg" xmlns:xlink="http://www.w3.org/1999/xlink">
    <title>3.Masa/Intercambio_3Masa</title>
    <g id="Symbols" stroke="none" stroke-width="1" fill="none" fill-rule="evenodd">
        <g id="3.Masa/Intercambio_3Masa" fill="#5CB615" fill-rule="nonzero">
            <path d="M13.8084034,13.7848739 C13.7210084,14.0235294 13.6,14.2252101 13.4420168,14.3831933 C13.287395,14.5310924 13.0890756,14.6420168 12.8537815,14.7226891 C12.5680672,14.8235294 12.2352941,14.8806723 11.8386555,14.8806723 C11.4420168,14.8806723 11.102521,14.8235294 10.8201681,14.7226891 C10.5915966,14.6420168 10.3932773,14.5310924 10.2420168,14.3865546 C10.0806723,14.2285714 9.96302521,14.0235294 9.87563025,13.7848739 C9.77142857,13.4991597 9.71428571,13.1529412 9.71428571,12.7495798 C9.71428571,12.2655462 9.79831933,11.8722689 9.94621849,11.5529412 C10.0268908,11.3815126 10.1210084,11.2268908 10.2453782,11.1058824 C10.4134454,10.9445378 10.6252101,10.8235294 10.8840336,10.7394958 C11.1563025,10.6521008 11.4722689,10.6084034 11.8386555,10.6084034 C12.205042,10.6084034 12.5176471,10.6521008 12.789916,10.7394958 C13.0521008,10.8235294 13.2705882,10.9478992 13.4386555,11.1092437 C13.5630252,11.2302521 13.6571429,11.3815126 13.7378151,11.5529412 C13.8890756,11.8722689 13.9731092,12.2655462 13.9731092,12.7495798 C13.9731092,13.1495798 13.9159664,13.492437 13.8084034,13.7848739 M23.512605,5.38487395 L20.4235294,2.25882353 C20.205042,1.98655462 19.805042,1.9394958 19.4621849,2.21848739 L16.3529412,5.38487395 C16.194958,5.58319328 16.1647059,5.85546218 16.2722689,6.08403361 C16.3798319,6.3092437 16.6016807,6.45042017 16.8436975,6.45042017 L17.9428571,6.45714286 C17.7344538,7.50588235 16.9647059,9.52941176 14.1512605,10.4168067 C14.1378151,10.4067227 14.1310924,10.3932773 14.1210084,10.3831933 C13.5865546,9.86890756 12.8201681,9.60672269 11.8352941,9.60672269 C10.8537815,9.60672269 10.0840336,9.86890756 9.55294118,10.3831933 C9.5394958,10.3966387 9.53277311,10.4134454 9.51932773,10.4268908 C6.71596639,9.55630252 5.94285714,7.58319328 5.73445378,6.45714286 L6.83697479,6.45042017 C7.08571429,6.45042017 7.30420168,6.3092437 7.41512605,6.08067227 C7.52268908,5.85210084 7.48907563,5.57647059 7.29747899,5.34453782 L4.26218487,2.26218487 L4.15798319,2.15462185 C4.02352941,2.04705882 3.85546218,1.99663866 3.68739496,2.02016807 C3.51932773,2.04033613 3.36806723,2.12436975 3.30084034,2.21512605 L0.181512605,5.37815126 C0.0201680672,5.57310924 -0.0134453782,5.8487395 0.0941176471,6.07731092 C0.201680672,6.30588235 0.423529412,6.44705882 0.668907563,6.44705882 L1.90588235,6.45378151 C2.05714286,7.61344538 2.65546218,10.2655462 4.95798319,12.2453782 C0.322689076,14.7428571 0.265546218,19.7310924 0.265546218,19.7815126 C0.265546218,20.8268908 1.11260504,21.6806723 2.17142857,21.6907563 C3.20672269,21.6907563 4.06386555,20.8436975 4.07731092,19.8016807 C4.08403361,19.3310924 4.31932773,15.5731092 9.35462185,14.8336134 C9.42184874,14.9176471 9.4789916,15.0117647 9.55630252,15.0857143 C10.087395,15.6 10.8537815,15.8588235 11.8352941,15.8588235 C12.8201681,15.8588235 13.5865546,15.6 14.1210084,15.0857143 C14.194958,15.0151261 14.2521008,14.9277311 14.3159664,14.8470588 C19.2134454,15.6168067 19.4521008,19.3344538 19.4554622,19.794958 C19.4621849,20.8436975 20.3159664,21.697479 21.3613445,21.697479 C22.4134454,21.697479 23.2672269,20.8403361 23.2672269,19.7815126 C23.2672269,19.7310924 23.2134454,14.7865546 18.6655462,12.2756303 C21.005042,10.312605 21.6168067,7.71092437 21.7747899,6.45378151 L23.005042,6.44369748 C23.2537815,6.44369748 23.4756303,6.30252101 23.5831933,6.07394958 C23.7008403,5.85546218 23.6705882,5.57983193 23.512605,5.38487395" id="Intercambio_3Masa"></path>
        </g>
    </g>
</svg>

<svg width="24" height="24" viewBox="0 0 24 24" xmlns="http://www.w3.org/2000/svg"><path d="M13.808 13.785a1.62 1.62 0 01-.366.598 1.576 1.576 0 01-.588.34c-.286.1-.619.158-1.015.158a3.03 3.03 0 01-1.019-.158 1.6 1.6 0 01-.578-.336 1.592 1.592 0 01-.366-.602 3.03 3.03 0 01-.162-1.035c0-.484.084-.878.232-1.197a1.51 1.51 0 01.3-.447c.167-.161.38-.282.638-.367a3.12 3.12 0 01.955-.13c.366 0 .679.043.95.13.263.085.482.209.65.37.124.121.218.273.299.444.151.32.235.713.235 1.197 0 .4-.057.742-.165 1.035m9.705-8.4l-3.09-3.126c-.218-.272-.618-.32-.96-.04l-3.11 3.166a.668.668 0 00-.08.699c.107.225.329.366.57.366l1.1.007c-.209 1.049-.978 3.072-3.792 3.96-.013-.01-.02-.024-.03-.034-.534-.514-1.3-.776-2.286-.776-.981 0-1.751.262-2.282.776-.014.014-.02.03-.034.044-2.803-.87-3.576-2.844-3.785-3.97l1.103-.007a.638.638 0 00.578-.37c.108-.228.074-.504-.118-.735L4.262 2.262l-.104-.107a.616.616 0 00-.47-.135c-.169.02-.32.104-.387.195L.18 5.378a.661.661 0 00-.087.7c.108.228.33.37.575.37l1.237.006c.151 1.16.75 3.812 3.052 5.791C.323 14.743.266 19.731.266 19.782c0 1.045.847 1.899 1.905 1.909a1.918 1.918 0 001.906-1.89c.007-.47.242-4.228 5.278-4.967.067.084.124.178.201.252.531.514 1.298.773 2.28.773.984 0 1.75-.259 2.285-.773.074-.07.131-.158.195-.239 4.897.77 5.136 4.487 5.14 4.948a1.914 1.914 0 001.905 1.902 1.91 1.91 0 001.906-1.915c0-.05-.054-4.995-4.601-7.506 2.339-1.963 2.95-4.565 3.109-5.822l1.23-.01c.249 0 .47-.141.578-.37a.63.63 0 00-.07-.69" fill="#5CB615" fill-rule="nonzero"/></svg>
